source/img/present.svg

<svg width="80" height="80" viewBox="0 0 80 80" fill="none" xmlns="http://www.w3.org/2000/svg">
<path d="M69.2 25.1167H69.1H44.8C58.4 18.3189 59.5 14.0202 59 11.621C57.9 7.72221 53.4 4.72316 49.2 6.32266C43.7 8.42199 42.2 16.6194 40.7 22.5175C38.8 16.5194 37 8.92183 32.7 5.02307C31.5 3.92341 29.7 2.82376 27 3.0237C23 3.42357 17.3 8.32202 19.7 13.8203C21.9 19.1186 29.2 22.5175 34.1 25.2167H11.8C10.2 25.2167 9 26.5163 9 28.0158V39.2123C9 40.8118 10.3 42.0114 11.8 42.0114H12.1V78H69.1V42.0114H69.2C70.8 42.0114 72 40.7118 72 39.2123V28.0158C72 26.4163 70.7 25.1167 69.2 25.1167ZM50.8 8.82187C52.9 8.52196 55.7 10.1215 56 12.0209C56.4 14.72 52.7 17.2192 51 18.3189C48.5 20.0183 46.1 20.918 43.8 22.3176C44.6 18.6188 46.3 9.42168 50.8 8.82187ZM28.2 18.6188C26 17.1192 21.8 14.2202 21.9 10.9212C22 7.32234 27.6 4.42326 30.6 7.1224C34.4 10.4214 36.2 18.1189 37.6 23.5172C34.4 21.9177 31.4 20.7181 28.2 18.6188ZM34.1 75.0009H15V42.0114H34.1V75.0009ZM34.1 39.0123H12V28.1158H34.1V39.0123ZM44.1 75.0009H37V28.1158H44.1V75.0009ZM66.1 75.0009H47.1V42.0114H66.2V75.0009H66.1ZM69 39.0123H47.1V28.1158H69V39.0123Z" fill="#81B3D2"/>
</svg>

<svg width="80" height="80" fill="none" xmlns="http://www.w3.org/2000/svg"><path d="M69.2 25.12H44.8c13.6-6.8 14.7-11.1 14.2-13.5-1.1-3.9-5.6-6.9-9.8-5.3-5.5 2.1-7 10.3-8.5 16.2-1.9-6-3.7-13.6-8-17.5-1.2-1.1-3-2.2-5.7-2-4 .4-9.7 5.3-7.3 10.8 2.2 5.3 9.5 8.7 14.4 11.4H11.8a2.8 2.8 0 0 0-2.8 2.8v11.2c0 1.6 1.3 2.8 2.8 2.8h.3V78h57V42.01h.1c1.6 0 2.8-1.3 2.8-2.8v-11.2c0-1.6-1.3-2.9-2.8-2.9ZM50.8 8.82c2.1-.3 4.9 1.3 5.2 3.2.4 2.7-3.3 5.2-5 6.3-2.5 1.7-4.9 2.6-7.2 4 .8-3.7 2.5-12.9 7-13.5Zm-22.6 9.8c-2.2-1.5-6.4-4.4-6.3-7.7.1-3.6 5.7-6.5 8.7-3.8 3.8 3.3 5.6 11 7 16.4-3.2-1.6-6.2-2.8-9.4-4.9ZM34.1 75H15V42.01h19.1v33Zm0-35.99H12v-10.9h22.1v10.9Zm10 36H37V28.1h7.1v46.9Zm22 0h-19V42h19.1v33h-.1ZM69 39H47.1v-10.9H69v10.9Z" fill="#81B3D2"/></svg>
